X: 33282
T: Purseholder
R: polka
M: 2/4
K: Dminor
|:DF Ad/e/|fe dA|DF Ad/e/|b2 a2|
DF Ad/e/|fe dA|1 BB/A/ Bc|d2 d2:|2 A/B/A GA|D2 D2||
|:AF/A/ dA|fd a2|BG/B/ dB|gd b2|
aa/b/ ag|fe dA|BB/A/ GF|D2 D2:|

